Surfn-Breeze-Dark/16x16/mimetypes/text-csv.svg

<?xml version="1.0" encoding="UTF-8" standalone="no"?>
<svg xmlns="http://www.w3.org/2000/svg" width="16" height="16" version="1.1" viewBox="0 0 16 16">
 <g transform="translate(0,-1036.3622)">
  <path style="fill:#04896a;fill-opacity:1" d="m 2,2 0,1 0,10 0,1 1,0 6,0 0,-1 -3,0 0,-3 3,0 0,-1 -3,0 0,-3 4,0 0,2 1,0 0,-2 2,0 0,2 1,0 L 14,2 3,2 Z M 3,3 13,3 13,5 3,5 Z M 3,6 5,6 5,9 3,9 Z m 8.5,3 C 10.668995,9 10,9.6379875 10,10.429688 c 0,0.7634 0.62316,1.376321 1.412109,1.419921 0.05749,0.2617 0.08693,0.528122 0.08789,0.794922 C 11.4978,13.107631 11.411159,13.5666 11.242188,14 12.342191,13.2657 12.998014,12.067109 13,10.787109 l 0,-0.357421 C 13,9.6378875 12.330999,9 11.5,9 Z m -8.5,1 2,0 0,3 -2,0 z" transform="translate(0,1036.3622)"/>
 </g>
</svg>

<svg width="16" xmlns="http://www.w3.org/2000/svg" height="16" viewBox="0 0 16 16">
 <path fill="#04896a" d="m2 2v12h7v-1h-3v-3h3v-1h-3v-3h4v2h1v-2h2v2h1v-6h-11zm1 1h10v2h-10zm0 3h2v3h-2zm8.5 3c-.831 0-1.5.638-1.5 1.43 0 .763.623 1.376 1.412 1.42.057.262.087.528.088.795-.002.463-.089.922-.258 1.355 1.1-.734 1.756-1.933 1.758-3.213v-.357c0-.792-.669-1.43-1.5-1.43m-8.5 1h2v3h-2z"/>
</svg>
